icons/svg/currency-gbp.svg

﻿<?xml version="1.0" encoding="utf-8"?>
<!DOCTYPE svg PUBLIC "-//W3C//DTD SVG 1.1//EN" "http://www.w3.org/Graphics/SVG/1.1/DTD/svg11.dtd">
<svg xmlns="http://www.w3.org/2000/svg" xmlns:xlink="http://www.w3.org/1999/xlink" version="1.1" baseProfile="full" width="24" height="24" viewBox="0 0 24.00 24.00" enable-background="new 0 0 24.00 24.00" xml:space="preserve">
	<path fill="#000000" fill-opacity="1" stroke-linejoin="round" d="M 6.5,21L 6.5,19.75C 7.43564,19.2867 8.23869,18.5681 8.80695,17.6977C 9.3752,16.8272 9.66705,15.8458 9.6825,14.7535L 9.65503,13.7698L 9.57267,13L 7,13L 7,11L 9.3996,11C 9.25123,10.1734 9.16241,9.30583 9.13317,8.24808C 9.15869,6.61071 9.6418,5.33069 10.5825,4.40801C 11.5232,3.48534 12.7682,3.016 14.3177,3C 15.0313,3.00594 15.6367,3.07181 16.134,3.19762C 16.6313,3.32342 17.0239,3.47355 17.3117,3.64798L 16.7624,5.39007C 16.5163,5.24693 16.1912,5.12097 15.7872,5.01217C 15.3832,4.90337 14.8934,4.84611 14.3177,4.84038C 13.2544,4.86157 12.483,5.1902 12.0035,5.82629C 11.5239,6.46238 11.2882,7.2788 11.2962,8.27557L 11.3992,9.7723L 11.6042,11L 15.5,11L 15.5,13L 11.7903,13C 11.8845,14.0111 11.839,14.9976 11.6539,15.9596C 11.3467,17.1644 10.7397,18.1779 9.83292,19L 18,19L 18,21L 6.5,21 Z "/>
</svg>

<svg xmlns="http://www.w3.org/2000/svg" version="1.1" baseProfile="full" width="24" height="24" viewBox="0 0 24.00 24.00" xml:space="preserve"><path fill="#000" fill-opacity="1" stroke-linejoin="round" d="M6.5 21v-1.25c.936-.463 1.74-1.182 2.307-2.052.568-.87.86-1.852.875-2.944l-.027-.984-.082-.77H7v-2h2.4c-.15-.827-.238-1.694-.267-2.752.026-1.637.51-2.917 1.45-3.84S12.768 3.016 14.317 3c.713.006 1.32.072 1.816.198.497.125.89.276 1.178.45l-.55 1.742c-.246-.143-.57-.27-.975-.378-.404-.11-.894-.166-1.47-.172-1.063.022-1.834.35-2.313.986-.48.636-.716 1.453-.708 2.45l.103 1.496.204 1.228H15.5v2h-3.71c.095 1.01.05 1.998-.136 2.96-.307 1.204-.914 2.218-1.82 3.04H18v2H6.5z"/></svg>
